artwork/resources/intui/icons/shell/toolbar/gradle-sync_dark.svg

<svg width="16" height="16" viewBox="0 0 16 16" fill="none" xmlns="http://www.w3.org/2000/svg">
<g id="gradle-sync/dark" clip-path="url(#clip0_2_596)">
<g id="toolbar/gradle sync">
<g id="Gradle">
<g id="Elephant">
<path id="Subtract" fill-rule="evenodd" clip-rule="evenodd" d="M13.9726 1.10841C14.6263 1.32831 15.1093 1.84182 15.3414 2.32076C15.4079 2.44934 15.4553 2.58484 15.4853 2.72428C15.5017 2.78339 15.5182 2.8486 15.5339 2.91951C15.6117 3.27083 15.6703 3.76559 15.6003 4.35416C15.5073 5.13698 15.1907 6.05417 14.4403 7H13.0919C13.7634 6.34813 14.153 5.7195 14.3723 5.16031C13.9864 5.41163 13.5118 5.56982 12.9631 5.56982C12.3136 5.56982 11.6931 5.30255 11.1163 5.0133C10.9342 4.92196 10.7556 4.82806 10.5765 4.73391C10.1568 4.51329 9.73459 4.29135 9.25924 4.09808C7.96769 3.57296 6.38033 3.30793 4.14481 4.41011C3.96409 4.49921 3.86134 4.7262 3.93546 4.95622L4.05155 5.31646L4.05407 5.32429L4.054 5.32431L4.63235 7.22556C4.67095 7.33234 4.76822 7.42285 4.95387 7.46389C5.15074 7.50741 5.37365 7.47317 5.52541 7.38795L5.53237 7.38404L5.5324 7.3841C6.15747 7.0461 6.731 6.64738 7.25701 6.17357C7.46219 5.98875 7.77834 6.00526 7.96316 6.21043C8.14797 6.41561 8.13147 6.73176 7.92629 6.91658C7.33877 7.4458 6.70054 7.88897 6.01128 8.26199C5.63408 8.47244 5.16005 8.53361 4.73803 8.44032C4.30677 8.34499 3.86227 8.06771 3.68346 7.54141L3.68086 7.53378L3.67852 7.52607L3.29934 6.27956C2.61711 6.82662 2.13017 7.47992 1.81718 8.23863C1.45901 9.10687 1.31834 10.1387 1.40263 11.3466H2.01952C2.31142 10.5998 3.03662 10.0836 3.87008 10.0836C4.7033 10.0836 5.42831 10.5995 5.72038 11.3459H6.37968C6.64451 10.6691 7.26532 10.1818 8 10.0969V10.5V11.1107C7.6529 11.1937 7.3733 11.4607 7.27809 11.8095C7.20196 12.0885 6.94585 12.3459 6.58832 12.3459H5.51173C5.15421 12.3459 4.8981 12.0885 4.82197 11.8095C4.70647 11.3863 4.31962 11.0836 3.87008 11.0836C3.42041 11.0836 3.03346 11.3865 2.91809 11.8099C2.84205 12.089 2.5859 12.3466 2.22825 12.3466H1.03554C0.727168 12.3466 0.470508 12.1128 0.439068 11.8084C0.286223 10.3283 0.420169 9.00285 0.892748 7.85728C1.32139 6.81823 2.01844 5.95235 2.98428 5.26486L2.98366 5.26293C2.76991 4.59959 3.04148 3.83915 3.7026 3.5132C6.23125 2.2665 8.12037 2.55555 9.63588 3.17173C10.1591 3.38447 10.6516 3.64324 11.0871 3.87207C11.2553 3.96044 11.4149 4.04435 11.5646 4.11941C12.134 4.40495 12.5694 4.56982 12.9631 4.56982C13.5754 4.56982 14.0246 4.26063 14.2837 3.86422C14.501 3.5318 14.5557 3.19128 14.5093 2.94853C14.4963 2.90507 14.4841 2.86841 14.4736 2.83907C14.4621 2.80665 14.4527 2.7833 14.4471 2.76971L14.4417 2.75721C14.309 2.48308 14.0166 2.17829 13.6537 2.05622C13.3287 1.94689 12.8789 1.96009 12.3296 2.44008C12.1217 2.62178 11.8058 2.60052 11.6241 2.39258C11.4424 2.18464 11.4637 1.86877 11.6716 1.68707C12.4599 0.998281 13.2757 0.873974 13.9726 1.10841Z" fill="#CED0D6"/>
<path id="Path" fill-rule="evenodd" clip-rule="evenodd" d="M9.25933 6.32003C9.16406 6.25882 9.1068 6.14729 9.14402 6.04034C9.24352 5.75444 9.50016 5.54321 9.8117 5.50936C10.1856 5.46872 10.5372 5.69461 10.6556 6.05159C10.7543 6.34903 10.6688 6.67024 10.4501 6.87955C10.3683 6.95785 10.2431 6.95212 10.1478 6.89091L9.25933 6.32003Z" fill="#CED0D6"/>
</g>
</g>
<g id="Arrow">
<path id="Vector 61" d="M14.8536 9.35355C15.0488 9.15829 15.0488 8.84171 14.8536 8.64645C14.6583 8.45118 14.3417 8.45118 14.1464 8.64645L14.8536 9.35355ZM14.1464 8.64645L9.64645 13.1464L10.3536 13.8536L14.8536 9.35355L14.1464 8.64645Z" fill="#3574F0"/>
<path id="Vector 62" d="M13 13.5L10 13.5L10 10.5" stroke="#3574F0" stroke-linecap="round" stroke-linejoin="round"/>
</g>
</g>
</g>
<defs>
<clipPath id="clip0_2_596">
<rect width="16" height="16" fill="white"/>
</clipPath>
</defs>
</svg>

<svg width="16" height="16" viewBox="0 0 16 16" fill="none" xmlns="http://www.w3.org/2000/svg"><g clip-path="url(#clip0_2_596)"><path fill-rule="evenodd" clip-rule="evenodd" d="M13.973 1.108c.653.22 1.136.734 1.368 1.213.067.128.114.264.144.403a4.305 4.305 0 0 1 .115 1.63c-.093.783-.41 1.7-1.16 2.646h-1.348c.671-.652 1.061-1.28 1.28-1.84-.386.252-.86.41-1.409.41-.65 0-1.27-.267-1.847-.557-.182-.091-.36-.185-.54-.28-.42-.22-.841-.442-1.317-.635-1.291-.525-2.879-.79-5.114.312a.449.449 0 0 0-.21.546l.117.36.002.008.578 1.902c.039.106.136.197.322.238.197.043.42.01.571-.076l.007-.004a8.837 8.837 0 0 0 1.725-1.21.5.5 0 0 1 .67.743A9.835 9.835 0 0 1 6.01 8.262c-.377.21-.851.272-1.273.178-.431-.095-.876-.372-1.055-.899l-.002-.007-.002-.008-.38-1.246a4.843 4.843 0 0 0-1.482 1.959c-.358.868-.499 1.9-.414 3.108h.617a1.987 1.987 0 0 1 3.7-.001h.66A1.988 1.988 0 0 1 8 10.096v1.014a.988.988 0 0 0-.722.7.72.72 0 0 1-.69.536H5.512a.72.72 0 0 1-.69-.537.987.987 0 0 0-1.904 0 .72.72 0 0 1-.69.538H1.036a.6.6 0 0 1-.597-.539c-.153-1.48-.019-2.805.454-3.95.428-1.04 1.125-1.906 2.091-2.593v-.002c-.214-.663.057-1.424.719-1.75 2.528-1.247 4.417-.957 5.933-.341a16.44 16.44 0 0 1 1.451.7c.168.088.328.172.478.247.569.286 1.004.45 1.398.45a1.54 1.54 0 0 0 1.32-.705c.218-.332.273-.673.226-.915a2.104 2.104 0 0 0-.062-.18l-.005-.012a1.437 1.437 0 0 0-.788-.7c-.325-.11-.775-.097-1.324.383a.5.5 0 1 1-.658-.753c.788-.689 1.604-.813 2.3-.579z" fill="#CED0D6"/><path fill-rule="evenodd" clip-rule="evenodd" d="M9.26 6.32c-.096-.061-.153-.173-.116-.28a.798.798 0 1 1 1.306.84c-.082.078-.207.072-.302.01l-.889-.57z" fill="#CED0D6"/><path d="M14.854 9.354a.5.5 0 1 0-.708-.708l.707.708zm-.708-.708l-4.5 4.5.707.707 4.5-4.5-.707-.707z" fill="#3574F0"/><path d="M13 13.5h-3v-3" stroke="#3574F0" stroke-linecap="round" stroke-linejoin="round"/></g><defs><clipPath id="clip0_2_596"><path fill="#fff" d="M0 0h16v16H0z"/></clipPath></defs></svg>
